src/colors/color-white/default-folder-open.svg

<svg width="64" height="64" version="1.1" xmlns="http://www.w3.org/2000/svg" xmlns:xlink="http://www.w3.org/1999/xlink">
 <defs>
  <linearGradient id="c" x1="31" x2="31" y1="1005.4" y2="1003.4" gradientTransform="matrix(.92593 0 0 1 2.3704 -978.4)" gradientUnits="userSpaceOnUse" xlink:href="#a"/>
  <linearGradient id="a">
   <stop offset="0"/>
   <stop stop-opacity="0" offset="1"/>
  </linearGradient>
  <radialGradient id="b" cx="32" cy="1021.9" r="25" gradientTransform="matrix(-1 0 0 -.080001 64 137.74)" gradientUnits="userSpaceOnUse" xlink:href="#a"/>
  <filter id="d" x="-.046837" y="-.028823" width="1.0937" height="1.0576" color-interpolation-filters="sRGB">
   <feGaussianBlur stdDeviation="0.31224941"/>
  </filter>
 </defs>
 <path d="m13 8c-1.108 0-2 0.892-2 2h-2.2148c-0.98928 0-1.7852 0.89127-1.7852 1.998v25.002c0 1.1068 0.79588 1.998 1.7852 1.998h46.43c0.98928 0 1.7852-0.89127 1.7852-1.998v-25.002c0-1.1068-0.79588-1.998-1.7852-1.998h-24.215c0-1.108-0.892-2-2-2h-16z" fill="#eeeeee" stroke-width="1.4241"/>
 <path d="m13 8c-1.108 0-2 0.892-2 2h-2.2148c-0.98928 0-1.7852 0.89127-1.7852 1.998v25.002c0 1.1068 0.79588 1.998 1.7852 1.998h46.43c0.98928 0 1.7852-0.89127 1.7852-1.998v-25.002c0-1.1068-0.79588-1.998-1.7852-1.998h-24.215c0-1.108-0.892-2-2-2h-16z" opacity=".15" stroke-width="1.4241"/>
 <g transform="matrix(1.25 0 0 1.1538 2.0633 -1151.5)" filter="url(#d)" opacity=".15">
  <rect x="20" y="1016.3" width="8" height="19.067" ry="1.5645e-5"/>
  <path d="m22.4 1017.2h-6.4l8-7.8 8 7.8h-5.6l-2.4 2.2z"/>
 </g>
 <g transform="matrix(1.25 0 0 1.1538 2 -1151.6)" fill="#808080">
  <rect x="20" y="1016.3" width="8" height="19.067" ry="1.5645e-5"/>
  <path d="m22.4 1017.2h-6.4l8-7.8 8 7.8h-5.6l-2.4 2.2z"/>
 </g>
 <rect x="7" y="25.04" width="50" height="2" ry="0" fill="url(#c)" opacity=".1" stroke-width="1.4088"/>
 <rect x="7" y="56.04" width="50" height="5" ry="0" fill="url(#b)" opacity=".1" stroke-width="1.4088"/>
 <rect x="4" y="27.04" width="56" height="29.04" rx="2" ry="2.0001" fill="#eeeeee" stroke-width="1.4241"/>
 <path d="m4 53.039v1.041c0 1.1081 0.892 2 2 2h52c1.108 0 2-0.89194 2-2v-1.041c0 1.1081-0.892 2-2 2h-52c-1.108 0-2-0.89194-2-2z" opacity=".15" stroke-width="1.4241"/>
</svg>

<svg xmlns="http://www.w3.org/2000/svg" xmlns:xlink="http://www.w3.org/1999/xlink" width="64" height="64"><defs><linearGradient xlink:href="#a" id="c" x1="31" x2="31" y1="1005.4" y2="1003.4" gradientTransform="matrix(.92593 0 0 1 2.37 -978.4)" gradientUnits="userSpaceOnUse"/><linearGradient id="a"><stop offset="0"/><stop offset="1" stop-opacity="0"/></linearGradient><radialGradient xlink:href="#a" id="e" cx="32" cy="1021.9" r="25" gradientTransform="matrix(-1 0 0 -.08 64 137.74)" gradientUnits="userSpaceOnUse"/><filter id="b" width="1.094" height="1.058" x="-.047" y="-.029" color-interpolation-filters="sRGB"><feGaussianBlur stdDeviation=".312"/></filter></defs><path fill="#eee" d="M13 8c-1.108 0-2 .892-2 2H8.785C7.795 10 7 10.891 7 11.998V37c0 1.107.796 1.998 1.785 1.998h46.43c.99 0 1.785-.891 1.785-1.998V11.998C57 10.891 56.205 10 55.215 10H31c0-1.108-.892-2-2-2z"/><path d="M13 8c-1.108 0-2 .892-2 2H8.785C7.795 10 7 10.891 7 11.998V37c0 1.107.796 1.998 1.785 1.998h46.43c.99 0 1.785-.891 1.785-1.998V11.998C57 10.891 56.205 10 55.215 10H31c0-1.108-.892-2-2-2z" opacity=".15"/><g filter="url(#b)" opacity=".15" transform="matrix(1.25 0 0 1.1538 2.063 -1151.5)"><rect width="8" height="19.067" x="20" y="1016.3" ry="0"/><path d="M22.4 1017.2H16l8-7.8 8 7.8h-5.6l-2.4 2.2z"/></g><g fill="gray" transform="matrix(1.25 0 0 1.1538 2 -1151.6)"><rect width="8" height="19.067" x="20" y="1016.3" ry="0"/><path d="M22.4 1017.2H16l8-7.8 8 7.8h-5.6l-2.4 2.2z"/></g><rect width="50" height="2" x="7" y="25.04" fill="url(#c)" opacity=".1" ry="0"/><rect width="50" height="5" x="7" y="56.04" fill="url(#e)" opacity=".1" ry="0"/><rect width="56" height="29.04" x="4" y="27.04" fill="#eee" rx="2" ry="2"/><path d="M4 53.039v1.041c0 1.108.892 2 2 2h52c1.108 0 2-.892 2-2v-1.041c0 1.108-.892 2-2 2H6c-1.108 0-2-.892-2-2" opacity=".15"/></svg>
